icons/general-add-square-3-filled.svg

<svg viewBox="0 0 24 24"><path fill="currentColor" fill-rule="evenodd" d="M18 2.4a3.6 3.6 0 0 1 3.6 3.6v12a3.6 3.6 0 0 1-3.6 3.6h-12a3.6 3.6 0 0 1-3.6-3.6v-12a3.6 3.6 0 0 1 3.6-3.6zm-6 3.6a1.2 1.2 0 0 1 1.2 1.2v3.5a.1.1 0 0 0 .1.1h3.5a1.2 1.2 0 0 1 0 2.4h-3.5a.1.1 0 0 0-.1.1v3.5a1.2 1.2 0 0 1-2.4 0v-3.5a.1.1 0 0 0-.1-.1h-3.5a1.2 1.2 0 0 1 0-2.4h3.5a.1.1 0 0 0 .1-.1v-3.5a1.2 1.2 0 0 1 1.2-1.2Z" clip-rule="evenodd"/></svg>

<svg viewBox="0 0 24 24"><path fill="currentColor" fill-rule="evenodd" d="M18 2.4A3.6 3.6 0 0 1 21.6 6v12a3.6 3.6 0 0 1-3.6 3.6H6A3.6 3.6 0 0 1 2.4 18V6A3.6 3.6 0 0 1 6 2.4zM12 6a1.2 1.2 0 0 1 1.2 1.2v3.5l.1.1h3.5a1.2 1.2 0 0 1 0 2.4h-3.5l-.1.1v3.5a1.2 1.2 0 0 1-2.4 0v-3.5l-.1-.1H7.2a1.2 1.2 0 0 1 0-2.4h3.5l.1-.1V7.2A1.2 1.2 0 0 1 12 6" clip-rule="evenodd"/></svg>
